X:334
T: TANZ MIR NICHT MIT MEINER JUNGFER
N: E0952
O: Europa, Mitteleuropa, Deutschland
R: Tanz - Lied, Reigen
M: 4/4
L: 1/4
K: C
 | CEFE | DCB,C | D2D2 |
CEFE | DCCB, | C2C2 |
CEFE | DCB,C | D2D2 |
CEFE | DCCB, | C2C2 |
DCB,C | DED2 |
DCB,C | DED2 |
CEFE | DCCB, | C2C2 |
DCB,C | DED2 |
DCB,C | DED2 |
CEFE | DCCB, | C2C2

@@@ Tune index: 4647
